;FLAVOR:Marlin
;TIME:3617
;Filament used: 1.92946m
;Layer height: 0.1
;MINX:27.2
;MINY:43.7
;MINZ:0.3
;MAXX:82.8
;MAXY:66.3
;MAXZ:26
;Generated with Cura_SteamEngine 4.12.1
M82 ;absolute extrusion mode
;Sliced at: Fri 31-12-2021 01:03:37
M104 S200 ;set temperatures
M140 S60
M109 S200 ;wait for temperatures
M190 S60
G21  ;metric values
G90  ;absolute positioning
M82  ;set extruder to absolute mode
M107  ;start with the fan off
G28 Z0  ;move Z to min endstops
G28 X0 Y0  ;move X/Y to min endstops
G29  ;Auto Level
G1 Z0.6 F120 ;move the Nozzle near the Bed
G92 E0
G1 Y0  ;zero the extruded length
G1 X10 E30 F500  ;printing a Line from right to left
G92 E0  ;zero the extruded length again
G1 Z2
G1 F120
M117 Printing...;Put printing message on LCD screen
M150 R255 U255 B255 P4 ;Change LED Color to white
G92 E0
G92 E0
G1 F6000 E-6.5
;LAYER_COUNT:258
;LAYER:0
M107
;MESH:servoHolderForLaptop_v1.0.stl
G0 F3600 X82.4 Y65.9 Z0.3
;TYPE:WALL-INNER
G1 F6000 E0
G1 F1800 X27.6 Y65.9 E2.73398
G1 X27.6 Y44.1 E3.82159
G1 X82.4 Y44.1 E6.55557
G1 X82.4 Y65.9 E7.64318
G0 F3600 X82.8 Y66.3
;TYPE:WALL-OUTER
G1 F1800 X27.2 Y66.3 E10.41707
G1 X27.2 Y43.7 E11.54459
G1 X82.8 Y43.7 E14.31849
G1 X82.8 Y66.3 E15.44601
G0 F3600 X82.6 Y66.3
G0 X82.01 Y65.51
;TYPE:SKIN
G1 F1800 X27.99 Y65.51 E18.14108
G1 X27.99 Y44.49 E19.18977
G1 X82.01 Y44.49 E21.88484
G1 X82.01 Y65.51 E22.93353
G0 F3600 X81.829 Y45.06
G1 F1800 X81.439 Y44.67 E22.96104
G0 F3600 X80.873 Y44.67
G1 F1800 X81.829 Y45.626 E23.0285
G0 F3600 X81.829 Y46.191
G1 F1800 X80.308 Y44.67 E23.13581
G0 F3600 X79.742 Y44.67
G1 F1800 X81.829 Y46.757 E23.28306
G0 F3600 X81.829 Y47.323
G1 F1800 X79.176 Y44.67 E23.47024
G0 F3600 X78.611 Y44.67
G1 F1800 X81.829 Y47.888 E23.69729
G0 F3600 X81.829 Y48.454
G1 F1800 X78.045 Y44.67 E23.96427
G0 F3600 X77.479 Y44.67
G1 F1800 X81.829 Y49.02 E24.27119
G0 F3600 X81.829 Y49.585
G1 F1800 X76.914 Y44.67 E24.61797
G0 F3600 X76.348 Y44.67
G1 F1800 X81.829 Y50.151 E25.00468
G0 F3600 X81.829 Y50.717
G1 F1800 X75.782 Y44.67 E25.43133
G0 F3600 X75.217 Y44.67
G1 F1800 X81.829 Y51.282 E25.89784
G0 F3600 X81.829 Y51.848
G1 F1800 X74.651 Y44.67 E26.40429
G0 F3600 X74.085 Y44.67
G1 F1800 X81.829 Y52.414 E26.95067
G0 F3600 X81.829 Y52.979
G1 F1800 X73.52 Y44.67 E27.53692
G0 F3600 X72.954 Y44.67
G1 F1800 X81.829 Y53.545 E28.16309
G0 F3600 X81.829 Y54.111
G1 F1800 X72.388 Y44.67 E28.82921
G0 F3600 X71.822 Y44.67
G1 F1800 X81.829 Y54.677 E29.53526
G0 F3600 X81.829 Y55.242
G1 F1800 X71.257 Y44.67 E30.28117
G0 F3600 X70.691 Y44.67
G1 F1800 X81.829 Y55.808 E31.06701
G0 F3600 X81.829 Y56.374
G1 F1800 X70.125 Y44.67 E31.89279
G0 F3600 X69.56 Y44.67
G1 F1800 X81.829 Y56.939 E32.75844
G0 F3600 X81.829 Y57.505
G1 F1800 X68.994 Y44.67 E33.66402
G0 F3600 X68.428 Y44.67
G1 F1800 X81.829 Y58.071 E34.60953
G0 F3600 X81.829 Y58.636
G1 F1800 X67.863 Y44.67 E35.59491
G0 F3600 X67.297 Y44.67
G1 F1800 X81.829 Y59.202 E36.62022
G0 F3600 X81.829 Y59.768
G1 F1800 X66.731 Y44.67 E37.68546
G0 F3600 X66.166 Y44.67
G1 F1800 X81.829 Y60.333 E38.79057
G0 F3600 X81.829 Y60.899
G1 F1800 X65.6 Y44.67 E39.93562
G0 F3600 X65.034 Y44.67
G1 F1800 X81.829 Y61.465 E41.12059
G0 F3600 X81.829 Y62.03
G1 F1800 X64.469 Y44.67 E42.34544
G0 F3600 X63.903 Y44.67
G1 F1800 X81.829 Y62.596 E43.61021
G0 F3600 X81.829 Y63.162
G1 F1800 X63.337 Y44.67 E44.91492
G0 F3600 X62.771 Y44.67
G1 F1800 X81.829 Y63.727 E46.25953
G0 F3600 X81.829 Y64.293
G1 F1800 X62.206 Y44.67 E47.64404
G0 F3600 X61.64 Y44.67
G1 F1800 X81.829 Y64.859 E49.06848
G0 F3600 X81.734 Y65.329
G1 F1800 X61.074 Y44.67 E50.52612
G0 F3600 X60.509 Y44.67
G1 F1800 X81.168 Y65.329 E51.98373
G0 F3600 X80.603 Y65.329
G1 F1800 X59.943 Y44.67 E53.44137
G0 F3600 X59.377 Y44.67
G1 F1800 X80.037 Y65.329 E54.89901
G0 F3600 X79.471 Y65.329
G1 F1800 X58.812 Y44.67 E56.35661
G0 F3600 X58.246 Y44.67
G1 F1800 X78.906 Y65.329 E57.81425
G0 F3600 X78.34 Y65.329
G1 F1800 X57.68 Y44.67 E59.27189
G0 F3600 X57.115 Y44.67
G1 F1800 X77.774 Y65.329 E60.72949
G0 F3600 X77.208 Y65.329
G1 F1800 X56.549 Y44.67 E62.1871
G0 F3600 X55.983 Y44.67
G1 F1800 X76.643 Y65.329 E63.64474
G0 F3600 X76.077 Y65.329
G1 F1800 X55.418 Y44.67 E65.10234
G0 F3600 X54.852 Y44.67
G1 F1800 X75.511 Y65.329 E66.55994
G0 F3600 X74.946 Y65.329
G1 F1800 X54.286 Y44.67 E68.01758
G0 F3600 X53.721 Y44.67
G1 F1800 X74.38 Y65.329 E69.47519
G0 F3600 X73.814 Y65.329
G1 F1800 X53.155 Y44.67 E70.93279
G0 F3600 X52.589 Y44.67
G1 F1800 X73.249 Y65.329 E72.39043
G0 F3600 X72.683 Y65.329
G1 F1800 X52.023 Y44.67 E73.84807
G0 F3600 X51.458 Y44.67
G1 F1800 X72.117 Y65.329 E75.30567
G0 F3600 X71.552 Y65.329
G1 F1800 X50.892 Y44.67 E76.76331
G0 F3600 X50.326 Y44.67
G1 F1800 X70.986 Y65.329 E78.22095
G0 F3600 X70.42 Y65.329
G1 F1800 X49.761 Y44.67 E79.67856
G0 F3600 X49.195 Y44.67
G1 F1800 X69.855 Y65.329 E81.1362
G0 F3600 X69.289 Y65.329
G1 F1800 X48.629 Y44.67 E82.59383
G0 F3600 X48.064 Y44.67
G1 F1800 X68.723 Y65.329 E84.05144
G0 F3600 X68.158 Y65.329
G1 F1800 X47.498 Y44.67 E85.50908
G0 F3600 X46.932 Y44.67
G1 F1800 X67.592 Y65.329 E86.96672
G0 F3600 X67.026 Y65.329
G1 F1800 X46.367 Y44.67 E88.42432
G0 F3600 X45.801 Y44.67
G1 F1800 X66.46 Y65.329 E89.88193
G0 F3600 X65.895 Y65.329
G1 F1800 X45.235 Y44.67 E91.33956
G0 F3600 X44.67 Y44.67
G1 F1800 X65.329 Y65.329 E92.79717
G0 F3600 X64.763 Y65.329
G1 F1800 X44.104 Y44.67 E94.25477
G0 F3600 X43.538 Y44.67
G1 F1800 X64.198 Y65.329 E95.71241
G0 F3600 X63.632 Y65.329
G1 F1800 X42.973 Y44.67 E97.17002
G0 F3600 X42.407 Y44.67
G1 F1800 X63.066 Y65.329 E98.62762
G0 F3600 X62.501 Y65.329
G1 F1800 X41.841 Y44.67 E100.08526
G0 F3600 X41.275 Y44.67
G1 F1800 X61.935 Y65.329 E101.5429
G0 F3600 X61.369 Y65.329
G1 F1800 X40.71 Y44.67 E103.0005
G0 F3600 X40.144 Y44.67
G1 F1800 X60.804 Y65.329 E104.45814
G0 F3600 X60.238 Y65.329
G1 F1800 X39.578 Y44.67 E105.91578
G0 F3600 X39.013 Y44.67
G1 F1800 X59.672 Y65.329 E107.37339
G0 F3600 X59.107 Y65.329
G1 F1800 X38.447 Y44.67 E108.83103
G0 F3600 X37.881 Y44.67
G1 F1800 X58.541 Y65.329 E110.28866
G0 F3600 X57.975 Y65.329
G1 F1800 X37.316 Y44.67 E111.74627
G0 F3600 X36.75 Y44.67
G1 F1800 X57.409 Y65.329 E113.20387
G0 F3600 X56.844 Y65.329
G1 F1800 X36.184 Y44.67 E114.66151
G0 F3600 X35.619 Y44.67
G1 F1800 X56.278 Y65.329 E116.11912
G0 F3600 X55.712 Y65.329
G1 F1800 X35.053 Y44.67 E117.57672
G0 F3600 X34.487 Y44.67
G1 F1800 X55.147 Y65.329 E119.03436
G0 F3600 X54.581 Y65.329
G1 F1800 X33.922 Y44.67 E120.49196
G0 F3600 X33.356 Y44.67
G1 F1800 X54.015 Y65.329 E121.94957
G0 F3600 X53.45 Y65.329
G1 F1800 X32.79 Y44.67 E123.40721
G0 F3600 X32.224 Y44.67
G1 F1800 X52.884 Y65.329 E124.86485
G0 F3600 X52.318 Y65.329
G1 F1800 X31.659 Y44.67 E126.32245
G0 F3600 X31.093 Y44.67
G1 F1800 X51.753 Y65.329 E127.78009
G0 F3600 X51.187 Y65.329
G1 F1800 X30.527 Y44.67 E129.23773
G0 F3600 X29.962 Y44.67
G1 F1800 X50.621 Y65.329 E130.69533
G0 F3600 X50.056 Y65.329
G1 F1800 X29.396 Y44.67 E132.15297
G0 F3600 X28.83 Y44.67
G1 F1800 X49.49 Y65.329 E133.61061
G0 F3600 X48.924 Y65.329
G1 F1800 X28.265 Y44.67 E135.06822
G0 F3600 X28.169 Y45.14
G1 F1800 X48.359 Y65.329 E136.49269
G0 F3600 X47.793 Y65.329
G1 F1800 X28.169 Y45.705 E137.87727
G0 F3600 X28.169 Y46.271
G1 F1800 X47.227 Y65.329 E139.22192
G0 F3600 X46.661 Y65.329
G1 F1800 X28.169 Y46.837 E140.52663
G0 F3600 X28.169 Y47.403
G1 F1800 X46.096 Y65.329 E141.79144
G0 F3600 X45.53 Y65.329
G1 F1800 X28.169 Y47.968 E143.01635
G0 F3600 X28.169 Y48.534
G1 F1800 X44.964 Y65.329 E144.20133
G0 F3600 X44.399 Y65.329
G1 F1800 X28.169 Y49.1 E145.34641
G0 F3600 X28.169 Y49.665
G1 F1800 X43.833 Y65.329 E146.45159
G0 F3600 X43.267 Y65.329
G1 F1800 X28.169 Y50.231 E147.51683
G0 F3600 X28.169 Y50.797
G1 F1800 X42.702 Y65.329 E148.54218
G0 F3600 X42.136 Y65.329
G1 F1800 X28.169 Y51.362 E149.52763
G0 F3600 X28.169 Y51.928
G1 F1800 X41.57 Y65.329 E150.47314
G0 F3600 X41.005 Y65.329
G1 F1800 X28.169 Y52.494 E151.37875
G0 F3600 X28.169 Y53.059
G1 F1800 X40.439 Y65.329 E152.24447
G0 F3600 X39.873 Y65.329
G1 F1800 X28.169 Y53.625 E153.07025
G0 F3600 X28.169 Y54.191
G1 F1800 X39.308 Y65.329 E153.85613
G0 F3600 X38.742 Y65.329
G1 F1800 X28.169 Y54.756 E154.60211
G0 F3600 X28.169 Y55.322
G1 F1800 X38.176 Y65.329 E155.30816
G0 F3600 X37.611 Y65.329
G1 F1800 X28.169 Y55.888 E155.97431
G0 F3600 X28.169 Y56.453
G1 F1800 X37.045 Y65.329 E156.60056
G0 F3600 X36.479 Y65.329
G1 F1800 X28.169 Y57.019 E157.18687
G0 F3600 X28.169 Y57.585
G1 F1800 X35.913 Y65.329 E157.73326
G0 F3600 X35.348 Y65.329
G1 F1800 X28.169 Y58.151 E158.23974
G0 F3600 X28.169 Y58.716
G1 F1800 X34.782 Y65.329 E158.70632
G0 F3600 X34.216 Y65.329
G1 F1800 X28.169 Y59.282 E159.13297
G0 F3600 X28.169 Y59.848
G1 F1800 X33.651 Y65.329 E159.51972
G0 F3600 X33.085 Y65.329
G1 F1800 X28.169 Y60.413 E159.86657
G0 F3600 X28.169 Y60.979
G1 F1800 X32.519 Y65.329 E160.17348
G0 F3600 X31.954 Y65.329
G1 F1800 X28.169 Y61.545 E160.4405
G0 F3600 X28.169 Y62.11
G1 F1800 X31.388 Y65.329 E160.66762
G0 F3600 X30.822 Y65.329
G1 F1800 X28.169 Y62.676 E160.8548
G0 F3600 X28.169 Y63.242
G1 F1800 X30.257 Y65.329 E161.00209
G0 F3600 X29.691 Y65.329
G1 F1800 X28.169 Y63.807 E161.10947
G0 F3600 X28.169 Y64.373
G1 F1800 X29.125 Y65.329 E161.17692
G0 F3600 X28.56 Y65.329
M104 S200
G1 F1800 X28.169 Y64.939 E161.20448
;MESH:NONMESH
G0 F600 X28.169 Y64.939 Z0.4
G0 F3600 X82.33 Y65.83
G0 X82.4 Y65.9
;TIME_ELAPSED:114.987285
;LAYER:1
M106 S255
;TYPE:WALL-INNER
;MESH:servoHolderForLaptop_v1.0.stl
G1 F2700 X27.6 Y65.9 E162.1158
G1 X27.6 Y44.1 E162.47834
G1 X82.4 Y44.1 E163.38967
G1 X82.4 Y65.9 E163.7522
G0 F5400 X82.8 Y66.3
;TYPE:WALL-OUTER
G1 F1800 X27.2 Y66.3 E164.67683
G1 X27.2 Y43.7 E165.05267
G1 X82.8 Y43.7 E165.97731
G1 X82.8 Y66.3 E166.35314
G0 F5400 X82.6 Y66.3
G0 X82.01 Y65.51
;TYPE:SKIN
G1 F1800 X27.99 Y65.51 E167.2515
G1 X27.99 Y44.49 E167.60106
G1 X82.01 Y44.49 E168.49942
G1 X82.01 Y65.51 E168.84899
G0 F5400 X81.748 Y65.329
G1 F1800 X81.829 Y65.248 E168.85089
G0 F5400 X81.829 Y64.683
G1 F1800 X81.182 Y65.329 E168.86609
G0 F5400 X80.617 Y65.329
G1 F1800 X81.829 Y64.117 E168.8946
G0 F5400 X81.829 Y63.551
G1 F1800 X80.051 Y65.329 E168.93642
G0 F5400 X79.485 Y65.329
G1 F1800 X81.829 Y62.986 E168.99153
G0 F5400 X81.829 Y62.42
G1 F1800 X78.92 Y65.329 E169.05995
G0 F5400 X78.354 Y65.329
G1 F1800 X81.829 Y61.854 E169.14167
G0 F5400 X81.829 Y61.289
G1 F1800 X77.788 Y65.329 E169.2367
G0 F5400 X77.223 Y65.329
G1 F1800 X81.829 Y60.723 E169.34502
G0 F5400 X81.829 Y60.157
G1 F1800 X76.657 Y65.329 E169.46666
G0 F5400 X76.091 Y65.329
G1 F1800 X81.829 Y59.592 E169.6016
G0 F5400 X81.829 Y59.026
G1 F1800 X75.526 Y65.329 E169.74984
G0 F5400 X74.96 Y65.329
G1 F1800 X81.829 Y58.46 E169.91138
G0 F5400 X81.829 Y57.895
G1 F1800 X74.394 Y65.329 E170.08623
G0 F5400 X73.829 Y65.329
G1 F1800 X81.829 Y57.329 E170.27438
G0 F5400 X81.829 Y56.763
G1 F1800 X73.263 Y65.329 E170.47584
G0 F5400 X72.697 Y65.329
G1 F1800 X81.829 Y56.198 E170.6906
G0 F5400 X81.829 Y55.632
G1 F1800 X72.131 Y65.329 E170.91867
G0 F5400 X71.566 Y65.329
G1 F1800 X81.829 Y55.066 E171.16004
G0 F5400 X81.829 Y54.5
G1 F1800 X71 Y65.329 E171.41472
G0 F5400 X70.434 Y65.329
G1 F1800 X81.829 Y53.935 E171.6827
G0 F5400 X81.829 Y53.369
G1 F1800 X69.869 Y65.329 E171.96398
G0 F5400 X69.303 Y65.329
G1 F1800 X81.829 Y52.803 E172.25857
G0 F5400 X81.829 Y52.238
G1 F1800 X68.737 Y65.329 E172.56647
G0 F5400 X68.172 Y65.329
G1 F1800 X81.829 Y51.672 E172.88766
G0 F5400 X81.829 Y51.106
G1 F1800 X67.606 Y65.329 E173.22216
G0 F5400 X67.04 Y65.329
G1 F1800 X81.829 Y50.541 E173.56996
G0 F5400 X81.829 Y49.975
G1 F1800 X66.475 Y65.329 E173.93107
G0 F5400 X65.909 Y65.329
G1 F1800 X81.829 Y49.409 E174.30548
G0 F5400 X81.829 Y48.844
G1 F1800 X65.343 Y65.329 E174.69319
G0 F5400 X64.778 Y65.329
G1 F1800 X81.829 Y48.278 E175.09421
G0 F5400 X81.829 Y47.712
G1 F1800 X64.212 Y65.329 E175.50853
G0 F5400 X63.646 Y65.329
G1 F1800 X81.829 Y47.147 E175.93616
G0 F5400 X81.829 Y46.581
G1 F1800 X63.08 Y65.329 E176.37709
G0 F5400 X62.515 Y65.329
G1 F1800 X81.829 Y46.015 E176.83133
G0 F5400 X81.829 Y45.449
G1 F1800 X61.949 Y65.329 E177.29888
G0 F5400 X61.383 Y65.329
G1 F1800 X81.829 Y44.884 E177.77972
G0 F5400 X81.478 Y44.669
G1 F1800 X60.818 Y65.329 E178.26561
G0 F5400 X60.252 Y65.329
G1 F1800 X80.912 Y44.669 E178.75151
G0 F5400 X80.347 Y44.669
G1 F1800 X59.686 Y65.329 E179.23741
G0 F5400 X59.121 Y65.329
G1 F1800 X79.781 Y44.669 E179.7233
G0 F5400 X79.215 Y44.669
G1 F1800 X58.555 Y65.329 E180.20919
G0 F5400 X57.989 Y65.329
G1 F1800 X78.65 Y44.669 E180.6951
G0 F5400 X78.084 Y44.669
G1 F1800 X57.424 Y65.329 E181.18099
G0 F5400 X56.858 Y65.329
G1 F1800 X77.518 Y44.669 E181.66688
G0 F5400 X76.953 Y44.669
G1 F1800 X56.292 Y65.329 E182.15278
G0 F5400 X55.727 Y65.329
G1 F1800 X76.387 Y44.669 E182.63867
G0 F5400 X75.821 Y44.669
G1 F1800 X55.161 Y65.329 E183.12457
G0 F5400 X54.595 Y65.329
G1 F1800 X75.255 Y44.669 E183.61046
G0 F5400 X74.69 Y44.669
G1 F1800 X54.03 Y65.329 E184.09635
G0 F5400 X53.464 Y65.329
G1 F1800 X74.124 Y44.669 E184.58224
G0 F5400 X73.558 Y44.669
G1 F1800 X52.898 Y65.329 E185.06813
G0 F5400 X52.332 Y65.329
G1 F1800 X72.993 Y44.669 E185.55403
G0 F5400 X72.427 Y44.669
G1 F1800 X51.767 Y65.329 E186.03993
G0 F5400 X51.201 Y65.329
G1 F1800 X71.861 Y44.669 E186.52582
G0 F5400 X71.296 Y44.669
G1 F1800 X50.635 Y65.329 E187.01172
G0 F5400 X50.07 Y65.329
G1 F1800 X70.73 Y44.669 E187.49761
G0 F5400 X70.164 Y44.669
G1 F1800 X49.504 Y65.329 E187.9835
G0 F5400 X48.938 Y65.329
G1 F1800 X69.599 Y44.669 E188.46941
G0 F5400 X69.033 Y44.669
G1 F1800 X48.373 Y65.329 E188.9553
G0 F5400 X47.807 Y65.329
G1 F1800 X68.467 Y44.669 E189.44119
G0 F5400 X67.902 Y44.669
G1 F1800 X47.241 Y65.329 E189.92709
G0 F5400 X46.676 Y65.329
G1 F1800 X67.336 Y44.669 E190.41299
G0 F5400 X66.77 Y44.669
G1 F1800 X46.11 Y65.329 E190.89888
G0 F5400 X45.544 Y65.329
G1 F1800 X66.204 Y44.669 E191.38477
G0 F5400 X65.639 Y44.669
G1 F1800 X44.979 Y65.329 E191.87066
G0 F5400 X44.413 Y65.329
G1 F1800 X65.073 Y44.669 E192.35655
G0 F5400 X64.507 Y44.669
G1 F1800 X43.847 Y65.329 E192.84244
G0 F5400 X43.282 Y65.329
G1 F1800 X63.942 Y44.669 E193.32833
G0 F5400 X63.376 Y44.669
G1 F1800 X42.716 Y65.329 E193.81423
G0 F5400 X42.15 Y65.329
G1 F1800 X62.81 Y44.669 E194.30012
G0 F5400 X62.245 Y44.669
G1 F1800 X41.584 Y65.329 E194.78602
G0 F5400 X41.019 Y65.329
G1 F1800 X61.679 Y44.669 E195.27191
G0 F5400 X61.113 Y44.669
G1 F1800 X40.453 Y65.329 E195.7578
G0 F5400 X39.887 Y65.329
G1 F1800 X60.548 Y44.669 E196.24371
G0 F5400 X59.982 Y44.669
G1 F1800 X39.322 Y65.329 E196.7296
G0 F5400 X38.756 Y65.329
G1 F1800 X59.416 Y44.669 E197.21549
G0 F5400 X58.851 Y44.669
G1 F1800 X38.19 Y65.329 E197.70139
G0 F5400 X37.625 Y65.329
G1 F1800 X58.285 Y44.669 E198.18728
G0 F5400 X57.719 Y44.669
G1 F1800 X37.059 Y65.329 E198.67318
G0 F5400 X36.493 Y65.329
G1 F1800 X57.154 Y44.669 E199.15908
G0 F5400 X56.588 Y44.669
G1 F1800 X35.928 Y65.329 E199.64497
G0 F5400 X35.362 Y65.329
G1 F1800 X56.022 Y44.669 E200.13086
G0 F5400 X55.456 Y44.669
G1 F1800 X34.796 Y65.329 E200.61675
G0 F5400 X34.231 Y65.329
G1 F1800 X54.891 Y44.669 E201.10265
G0 F5400 X54.325 Y44.669
G1 F1800 X33.665 Y65.329 E201.58854
G0 F5400 X33.099 Y65.329
G1 F1800 X53.759 Y44.669 E202.07443
G0 F5400 X53.194 Y44.669
G1 F1800 X32.533 Y65.329 E202.56033
G0 F5400 X31.968 Y65.329
G1 F1800 X52.628 Y44.669 E203.04622
G0 F5400 X52.062 Y44.669
G1 F1800 X31.402 Y65.329 E203.53212
G0 F5400 X30.836 Y65.329
G1 F1800 X51.497 Y44.669 E204.01802
G0 F5400 X50.931 Y44.669
G1 F1800 X30.271 Y65.329 E204.50391
G0 F5400 X29.705 Y65.329
G1 F1800 X50.365 Y44.669 E204.9898
G0 F5400 X49.8 Y44.669
G1 F1800 X29.139 Y65.329 E205.4757
G0 F5400 X28.574 Y65.329
G1 F1800 X49.234 Y44.669 E205.9616
G0 F5400 X48.668 Y44.669
G1 F1800 X28.169 Y65.168 E206.4437
G0 F5400 X28.169 Y64.602
G1 F1800 X48.103 Y44.669 E206.91251
G0 F5400 X47.537 Y44.669
G1 F1800 X28.169 Y64.037 E207.36801
G0 F5400 X28.169 Y63.471
G1 F1800 X46.971 Y44.669 E207.81021
G0 F5400 X46.406 Y44.669
G1 F1800 X28.169 Y62.905 E208.2391
G0 F5400 X28.169 Y62.339
G1 F1800 X45.84 Y44.669 E208.65468
G0 F5400 X45.274 Y44.669
G1 F1800 X28.169 Y61.774 E209.05697
G0 F5400 X28.169 Y61.208
