;FLAVOR:Marlin
;TIME:592
;Filament used: 0.273738m
;Layer height: 0.1
;MINX:45.307
;MINY:45.303
;MINZ:0.3
;MAXX:64.693
;MAXY:64.697
;MAXZ:10
;Generated with Cura_SteamEngine 4.12.1
M82 ;absolute extrusion mode
;Sliced at: Fri 31-12-2021 19:34:57
M104 S200 ;set temperatures
M140 S60
M109 S200 ;wait for temperatures
M190 S60
G21  ;metric values
G90  ;absolute positioning
M82  ;set extruder to absolute mode
M107  ;start with the fan off
G28 Z0  ;move Z to min endstops
G28 X0 Y0  ;move X/Y to min endstops
G29  ;Auto Level
G1 Z0.6 F120 ;move the Nozzle near the Bed
G92 E0
G1 Y0  ;zero the extruded length
G1 X10 E30 F500  ;printing a Line from right to left
G92 E0  ;zero the extruded length again
G1 Z2
G1 F120
M117 Printing...;Put printing message on LCD screen
M150 R255 U255 B255 P4 ;Change LED Color to white
G92 E0
G92 E0
G1 F6000 E-6.5
;LAYER_COUNT:98
;LAYER:0
M107
;MESH:coneForServoHolder-v1.stl
G0 F3600 X53.675 Y63.399 Z0.3
;TYPE:WALL-INNER
G1 F6000 E0
G1 F1800 X54.61 Y63.488 E0.04686
G1 X54.825 Y63.498 E0.0576
G1 X55.765 Y63.468 E0.10452
G1 X55.979 Y63.44 E0.11528
G1 X56.901 Y63.289 E0.1619
G1 X57.792 Y63.024 E0.20827
G1 X57.997 Y62.96 E0.21899
G1 X58.856 Y62.578 E0.26589
G1 X59.045 Y62.478 E0.27656
G1 X59.85 Y61.988 E0.32357
G1 X60.018 Y61.857 E0.3342
G1 X60.743 Y61.277 E0.38052
G1 X61.397 Y60.605 E0.42731
G1 X61.54 Y60.442 E0.43812
G1 X62.1 Y59.687 E0.48502
G1 X62.212 Y59.504 E0.49572
G1 X62.669 Y58.689 E0.54234
G1 X63.018 Y57.828 E0.58869
G1 X63.096 Y57.625 E0.59954
G1 X63.332 Y56.717 E0.64635
G1 X63.373 Y56.505 E0.65712
G1 X63.492 Y55.571 E0.70409
G1 X63.492 Y54.428 E0.76112
G1 X63.372 Y53.499 E0.80785
G1 X63.334 Y53.286 E0.81865
G1 X63.095 Y52.379 E0.86544
G1 X63.021 Y52.177 E0.87617
G1 X62.668 Y51.311 E0.92283
G1 X62.213 Y50.502 E0.96914
G1 X62.104 Y50.315 E0.97994
G1 X61.54 Y49.561 E1.02691
G1 X61.399 Y49.399 E1.03763
G1 X60.743 Y48.722 E1.08466
G1 X59.852 Y48.013 E1.14147
G1 X59.05 Y47.525 E1.1883
G1 X58.86 Y47.422 E1.19909
G1 X58 Y47.042 E1.24599
G1 X57.795 Y46.975 E1.25675
G1 X56.9 Y46.711 E1.30331
G1 X55.983 Y46.562 E1.34966
G1 X55.769 Y46.531 E1.36044
G1 X54.829 Y46.503 E1.40736
G1 X54.614 Y46.511 E1.41809
G1 X53.676 Y46.602 E1.46511
G1 X52.565 Y46.857 E1.52198
G1 X51.684 Y47.181 E1.56881
G1 X51.487 Y47.264 E1.57948
G1 X50.653 Y47.699 E1.62641
G1 X50.473 Y47.816 E1.63712
G1 X49.707 Y48.352 E1.68376
G1 X49.016 Y48.978 E1.73028
G1 X48.86 Y49.128 E1.74107
G1 X48.252 Y49.842 E1.78786
G1 X48.124 Y50.017 E1.79868
G1 X47.612 Y50.807 E1.84564
G1 X47.117 Y51.834 E1.90252
G1 X46.823 Y52.722 E1.94919
G1 X46.764 Y52.93 E1.95998
G1 X46.585 Y53.853 E2.00688
G1 X46.564 Y54.067 E2.01761
G1 X46.505 Y55 E2.06425
G1 X46.565 Y55.929 E2.1107
G1 X46.583 Y56.144 E2.12146
G1 X46.764 Y57.065 E2.16829
G1 X46.82 Y57.273 E2.17903
G1 X47.118 Y58.167 E2.22605
G1 X47.612 Y59.194 E2.28291
G1 X48.124 Y59.98 E2.3297
G1 X48.248 Y60.154 E2.34036
G1 X48.86 Y60.869 E2.38732
G1 X49.013 Y61.019 E2.39801
G1 X49.707 Y61.648 E2.44474
G1 X50.47 Y62.181 E2.49117
G1 X50.649 Y62.3 E2.50189
G1 X51.483 Y62.735 E2.54882
G1 X51.681 Y62.82 E2.55957
G1 X52.565 Y63.143 E2.60653
G1 X53.675 Y63.399 E2.66336
G0 F3600 X53.659 Y63.497
G0 X56.244 Y64.115
G0 X56.254 Y64.214
G1 F1800 X55.29 Y64.296 E2.71163
G1 X54.172 Y64.263 E2.76743
G1 X53.224 Y64.127 E2.81521
G1 X53.092 Y64.1 E2.82193
G1 X52.166 Y63.856 E2.86971
G1 X52.026 Y63.805 E2.87714
G1 X51.138 Y63.456 E2.92474
G1 X50.278 Y63.004 E2.97321
G1 X50.159 Y62.936 E2.98005
G1 X49.369 Y62.395 E3.02782
G1 X49.248 Y62.297 E3.03559
G1 X48.529 Y61.673 E3.08308
G1 X47.875 Y60.961 E3.13132
G1 X47.783 Y60.858 E3.13821
G1 X47.211 Y60.068 E3.18687
G1 X47.134 Y59.947 E3.19402
G1 X46.678 Y59.137 E3.2404
G1 X46.616 Y58.994 E3.24817
G1 X46.242 Y58.105 E3.29629
G1 X45.968 Y57.174 E3.34471
G1 X45.933 Y57.033 E3.35196
G1 X45.774 Y56.108 E3.39878
G1 X45.761 Y55.96 E3.40619
G1 X45.707 Y55 E3.45416
G1 X45.762 Y54.04 E3.50214
G1 X45.773 Y53.896 E3.50934
G1 X45.938 Y52.943 E3.55759
G1 X45.967 Y52.828 E3.56351
G1 X46.243 Y51.893 E3.61215
G1 X46.671 Y50.874 E3.66729
G1 X47.152 Y50.028 E3.71584
G1 X47.214 Y49.928 E3.72171
G1 X47.796 Y49.128 E3.77107
G1 X47.874 Y49.04 E3.77693
G1 X48.529 Y48.327 E3.82524
G1 X49.25 Y47.702 E3.87284
G1 X49.373 Y47.602 E3.88075
G1 X50.154 Y47.068 E3.92795
G1 X50.284 Y46.992 E3.93546
G1 X51.129 Y46.548 E3.98309
G1 X52.17 Y46.142 E4.03883
G1 X53.092 Y45.901 E4.08638
G1 X53.235 Y45.871 E4.09367
G1 X54.169 Y45.738 E4.14073
G1 X54.327 Y45.731 E4.14862
G1 X55.287 Y45.704 E4.19654
G1 X56.247 Y45.787 E4.24461
G1 X56.393 Y45.803 E4.25194
G1 X57.326 Y45.995 E4.29946
G1 X57.464 Y46.033 E4.3066
G1 X58.365 Y46.326 E4.35387
G1 X59.394 Y46.798 E4.41035
G1 X60.194 Y47.282 E4.457
G1 X60.328 Y47.372 E4.46505
G1 X61.074 Y47.95 E4.51214
G1 X61.18 Y48.05 E4.51941
G1 X61.866 Y48.718 E4.56718
G1 X62.487 Y49.476 E4.61606
G1 X62.567 Y49.582 E4.62269
G1 X63.086 Y50.391 E4.67064
G1 X63.147 Y50.505 E4.67709
G1 X63.577 Y51.384 E4.72591
G1 X63.896 Y52.28 E4.77336
G1 X63.944 Y52.422 E4.78084
G1 X64.164 Y53.37 E4.82939
G1 X64.184 Y53.492 E4.83556
G1 X64.292 Y54.441 E4.88321
G1 X64.293 Y55.557 E4.93889
G1 X64.185 Y56.494 E4.98595
G1 X64.161 Y56.642 E4.99343
G1 X63.939 Y57.595 E5.04224
G1 X63.901 Y57.709 E5.04824
G1 X63.576 Y58.618 E5.0964
G1 X63.152 Y59.481 E5.14437
G1 X63.078 Y59.623 E5.15236
G1 X62.575 Y60.404 E5.19871
G1 X62.479 Y60.535 E5.20681
G1 X61.869 Y61.28 E5.25485
G1 X61.079 Y62.047 E5.30978
G1 X60.323 Y62.63 E5.35741
G1 X60.191 Y62.721 E5.36541
G1 X59.385 Y63.206 E5.41234
G1 X59.25 Y63.271 E5.41981
G1 X58.369 Y63.673 E5.46813
G1 X57.468 Y63.965 E5.51538
G1 X57.317 Y64.009 E5.52323
G1 X56.38 Y64.199 E5.57093
G1 X56.254 Y64.214 E5.57726
G0 F3600 X56.288 Y64.613
;TYPE:WALL-OUTER
G1 F1800 X55.303 Y64.697 E5.62658
G1 X54.138 Y64.662 E5.68472
G1 X53.16 Y64.522 E5.73401
G1 X52.996 Y64.489 E5.74236
G1 X52.044 Y64.238 E5.79148
G1 X51.886 Y64.179 E5.79989
G1 X50.965 Y63.818 E5.84925
G1 X50.091 Y63.357 E5.89854
G1 X49.942 Y63.272 E5.9071
G1 X49.127 Y62.714 E5.95638
G1 X48.996 Y62.608 E5.96479
G1 X48.249 Y61.96 E6.01412
G1 X47.58 Y61.231 E6.06349
G1 X47.47 Y61.108 E6.07172
G1 X46.887 Y60.303 E6.12131
G1 X46.797 Y60.162 E6.12965
G1 X46.317 Y59.31 E6.17844
G1 X46.249 Y59.153 E6.18698
G1 X45.864 Y58.239 E6.23646
G1 X45.584 Y57.287 E6.28596
G1 X45.542 Y57.121 E6.29451
G1 X45.376 Y56.153 E6.3435
G1 X45.363 Y55.992 E6.35156
G1 X45.307 Y55 E6.40113
G1 X45.363 Y54.01 E6.4506
G1 X45.375 Y53.848 E6.45871
G1 X45.546 Y52.865 E6.50849
G1 X45.583 Y52.715 E6.51619
G1 X45.865 Y51.759 E6.56592
G1 X46.312 Y50.696 E6.62345
G1 X46.804 Y49.83 E6.67314
G1 X46.886 Y49.699 E6.68085
G1 X47.477 Y48.886 E6.731
G1 X47.579 Y48.77 E6.73871
G1 X48.249 Y48.04 E6.78814
G1 X48.997 Y47.392 E6.83751
G1 X49.132 Y47.282 E6.8462
G1 X49.938 Y46.731 E6.89491
G1 X50.092 Y46.641 E6.90381
G1 X50.965 Y46.182 E6.95302
G1 X52.045 Y45.761 E7.01085
G1 X52.995 Y45.513 E7.05983
G1 X53.169 Y45.476 E7.06871
G1 X54.137 Y45.339 E7.11748
G1 X54.308 Y45.331 E7.12602
G1 X55.302 Y45.303 E7.17563
G1 X56.282 Y45.388 E7.22471
G1 X56.452 Y45.407 E7.23324
G1 X57.413 Y45.604 E7.28218
G1 X57.582 Y45.651 E7.29094
G1 X58.517 Y45.955 E7.33999
G1 X59.576 Y46.441 E7.39812
G1 X60.414 Y46.948 E7.44698
G1 X60.561 Y47.047 E7.45582
G1 X61.333 Y47.645 E7.50454
G1 X61.459 Y47.763 E7.51316
G1 X62.161 Y48.446 E7.56202
G1 X62.797 Y49.223 E7.61211
G1 X62.899 Y49.358 E7.62056
G1 X63.426 Y50.18 E7.66927
G1 X63.506 Y50.329 E7.67771
G1 X63.947 Y51.231 E7.7278
G1 X64.275 Y52.152 E7.77658
G1 X64.33 Y52.315 E7.78516
G1 X64.554 Y53.28 E7.83458
G1 X64.58 Y53.434 E7.84237
G1 X64.692 Y54.422 E7.89198
G1 X64.693 Y55.577 E7.9496
G1 X64.58 Y56.557 E7.99882
G1 X64.553 Y56.726 E8.00736
G1 X64.327 Y57.694 E8.05695
G1 X64.278 Y57.844 E8.06482
G1 X63.947 Y58.769 E8.11384
G1 X63.507 Y59.666 E8.16368
G1 X63.426 Y59.821 E8.17241
G1 X62.897 Y60.642 E8.22113
G1 X62.798 Y60.776 E8.22945
G1 X62.163 Y61.552 E8.27947
G1 X61.339 Y62.352 E8.33677
G1 X60.561 Y62.953 E8.38582
G1 X60.414 Y63.054 E8.39471
G1 X59.573 Y63.56 E8.44368
G1 X59.423 Y63.632 E8.45198
G1 X58.517 Y64.045 E8.50166
G1 X57.581 Y64.349 E8.55076
G1 X57.418 Y64.397 E8.55923
G1 X56.444 Y64.594 E8.60881
G1 X56.288 Y64.613 E8.61665
G0 F3600 X56.089 Y64.63
G0 X56.048 Y64.131
G0 X53.692 Y63.5
G0 X53.739 Y63.003
G1 F1800 X54.639 Y63.089 E8.66176
G1 X54.828 Y63.098 E8.6712
G1 X55.732 Y63.069 E8.71632
G1 X55.92 Y63.044 E8.72578
G1 X56.811 Y62.898 E8.77083
G1 X57.675 Y62.642 E8.81578
G1 X57.855 Y62.585 E8.8252
G1 X58.681 Y62.218 E8.8703
G1 X58.848 Y62.13 E8.87972
G1 X59.622 Y61.659 E8.92492
G1 X59.77 Y61.543 E8.9343
G1 X60.474 Y60.98 E8.97927
G1 X61.103 Y60.333 E9.02429
G1 X61.229 Y60.19 E9.0338
G1 X61.768 Y59.464 E9.07891
G1 X61.866 Y59.302 E9.08836
G1 X62.308 Y58.515 E9.13339
G1 X62.646 Y57.681 E9.17828
G1 X62.714 Y57.503 E9.18779
G1 X62.942 Y56.629 E9.23285
G1 X62.978 Y56.442 E9.24236
G1 X63.092 Y55.546 E9.28742
G1 X63.092 Y54.454 E9.3419
G1 X62.977 Y53.56 E9.38687
G1 X62.943 Y53.373 E9.39635
G1 X62.713 Y52.499 E9.44144
G1 X62.648 Y52.321 E9.45089
G1 X62.307 Y51.485 E9.49594
G1 X61.866 Y50.701 E9.54081
G1 X61.77 Y50.536 E9.55034
G1 X61.228 Y49.812 E9.59546
G1 X61.104 Y49.669 E9.6049
G1 X60.474 Y49.019 E9.65006
G1 X59.623 Y48.342 E9.70431
G1 X58.85 Y47.872 E9.74945
G1 X58.683 Y47.781 E9.75894
G1 X57.857 Y47.416 E9.80399
G1 X57.676 Y47.357 E9.81349
G1 X56.811 Y47.102 E9.85848
G1 X55.922 Y46.957 E9.90342
G1 X55.734 Y46.93 E9.91289
G1 X54.83 Y46.903 E9.95801
G1 X54.641 Y46.91 E9.96745
G1 X53.74 Y46.998 E10.01262
G1 X52.679 Y47.241 E10.06692
G1 X51.831 Y47.553 E10.112
G1 X51.657 Y47.626 E10.12141
G1 X50.855 Y48.045 E10.16656
G1 X50.697 Y48.148 E10.17597
G1 X49.957 Y48.665 E10.221
G1 X49.289 Y49.271 E10.266
G1 X49.151 Y49.403 E10.27553
G1 X48.566 Y50.09 E10.32054
G1 X48.454 Y50.244 E10.33004
G1 X47.961 Y51.003 E10.3752
G1 X47.489 Y51.984 E10.42951
G1 X47.205 Y52.84 E10.47451
G1 X47.153 Y53.023 E10.484
G1 X46.981 Y53.91 E10.52907
G1 X46.963 Y54.099 E10.53855
G1 X46.906 Y55 E10.58359
G1 X46.964 Y55.899 E10.62853
G1 X46.98 Y56.088 E10.63799
G1 X47.154 Y56.975 E10.68309
G1 X47.203 Y57.158 E10.69254
G1 X47.489 Y58.016 E10.73766
G1 X47.961 Y58.997 E10.79198
G1 X48.455 Y59.755 E10.83711
G1 X48.564 Y59.908 E10.84649
G1 X49.152 Y60.596 E10.89164
G1 X49.287 Y60.728 E10.90106
G1 X49.957 Y61.335 E10.94616
G1 X50.695 Y61.85 E10.99106
G1 X50.853 Y61.955 E11.00053
G1 X51.655 Y62.373 E11.04565
G1 X51.829 Y62.448 E11.0551
G1 X52.679 Y62.759 E11.10025
G1 X53.739 Y63.003 E11.15452
G0 F3600 X53.938 Y63.022
G0 X53.612 Y63.785
;TYPE:SKIN
G1 F1800 X54.583 Y63.878 E11.20319
G1 X54.823 Y63.888 E11.21517
G1 X55.796 Y63.858 E11.26374
G1 X56.036 Y63.826 E11.27582
G1 X56.989 Y63.67 E11.32399
G1 X57.905 Y63.397 E11.37168
G1 X58.135 Y63.325 E11.3837
G1 X59.027 Y62.929 E11.43239
G1 X59.238 Y62.817 E11.44431
G1 X60.072 Y62.31 E11.49301
G1 X60.26 Y62.163 E11.50491
G1 X61.006 Y61.566 E11.55258
G1 X61.684 Y60.87 E11.60106
G1 X61.844 Y60.687 E11.61318
G1 X62.424 Y59.905 E11.66176
G1 X62.549 Y59.701 E11.67369
G1 X63.022 Y58.858 E11.72192
G1 X63.381 Y57.971 E11.76966
G1 X63.468 Y57.744 E11.78179
G1 X63.712 Y56.803 E11.83029
G1 X63.759 Y56.567 E11.84229
G1 X63.882 Y55.596 E11.89112
G1 X63.882 Y54.403 E11.95064
G1 X63.758 Y53.44 E11.99908
G1 X63.715 Y53.202 E12.01115
G1 X63.468 Y52.262 E12.05964
G1 X63.385 Y52.037 E12.0716
G1 X63.019 Y51.141 E12.11989
G1 X62.552 Y50.309 E12.16749
G1 X62.43 Y50.099 E12.17961
G1 X61.844 Y49.315 E12.22844
G1 X61.686 Y49.135 E12.24039
G1 X61.006 Y48.433 E12.28915
G1 X60.076 Y47.693 E12.34844
G1 X59.245 Y47.187 E12.39698
G1 X59.032 Y47.071 E12.40908
G1 X58.14 Y46.677 E12.45773
G1 X57.91 Y46.603 E12.46979
G1 X56.987 Y46.33 E12.51781
G1 X56.042 Y46.176 E12.56557
G1 X55.802 Y46.141 E12.57768
G1 X54.827 Y46.113 E12.62634
G1 X54.588 Y46.121 E12.63827
G1 X53.613 Y46.216 E12.68714
G1 X52.454 Y46.483 E12.74648
G1 X51.541 Y46.818 E12.795
G1 X51.321 Y46.911 E12.80691
G1 X50.456 Y47.362 E12.85558
G1 X50.255 Y47.492 E12.86753
G1 X49.463 Y48.046 E12.91575
G1 X48.75 Y48.693 E12.96378
G1 X48.576 Y48.86 E12.97581
G1 X47.946 Y49.6 E13.0243
G1 X47.803 Y49.795 E13.03636
G1 X47.271 Y50.616 E13.08517
G1 X46.754 Y51.688 E13.14455
G1 X46.45 Y52.607 E13.19284
G1 X46.384 Y52.84 E13.20492
G1 X46.199 Y53.797 E13.25355
G1 X46.176 Y54.036 E13.26553
G1 X46.115 Y55 E13.31372
G1 X46.177 Y55.958 E13.36161
G1 X46.197 Y56.198 E13.37363
G1 X46.384 Y57.153 E13.42218
G1 X46.446 Y57.386 E13.43421
G1 X46.756 Y58.314 E13.48302
G1 X47.271 Y59.385 E13.54231
G1 X47.802 Y60.2 E13.59084
G1 X47.94 Y60.394 E13.60272
G1 X48.575 Y61.136 E13.65144
G1 X48.746 Y61.303 E13.66337
G1 X49.463 Y61.954 E13.71168
G1 X50.25 Y62.503 E13.75955
G1 X50.45 Y62.636 E13.77154
G1 X51.315 Y63.088 E13.82023
G1 X51.537 Y63.183 E13.83228
G1 X52.454 Y63.517 E13.88097
G1 X53.612 Y63.785 E13.94027
G0 F3600 X54.203 Y63.873
G1 F1800 X53.29 Y63.743 E13.98627
G1 X53.181 Y63.72 E13.99183
G1 X52.289 Y63.485 E14.03785
G1 X52.159 Y63.438 E14.04475
G1 X51.295 Y63.098 E14.09107
G1 X50.471 Y62.665 E14.13751
G1 X50.365 Y62.604 E14.14361
G1 X49.597 Y62.079 E14.19003
G1 X49.498 Y61.998 E14.19641
G1 X48.796 Y61.39 E14.24274
G1 X48.164 Y60.699 E14.28946
G1 X48.081 Y60.606 E14.29568
G1 X47.532 Y59.847 E14.34241
G1 X47.469 Y59.747 E14.34831
G1 X47.023 Y58.955 E14.39366
G1 X46.609 Y57.971 E14.44692
G1 X46.342 Y57.064 E14.49409
G1 X46.315 Y56.955 E14.49969
G1 X46.16 Y56.057 E14.54515
G1 X46.151 Y55.938 E14.55111
G1 X46.099 Y55 E14.59798
G1 X46.159 Y53.949 E14.6505
G1 X46.318 Y53.031 E14.69698
G1 X46.341 Y52.939 E14.70171
G1 X46.614 Y52.015 E14.74978
G1 X47.019 Y51.051 E14.80194
G1 X47.488 Y50.227 E14.84924
G1 X47.534 Y50.153 E14.85359
G1 X48.106 Y49.366 E14.90213
G1 X48.206 Y49.254 E14.90962
G1 X48.801 Y48.607 E14.95347
G1 X49.5 Y48.001 E14.99963
G1 X49.602 Y47.918 E15.00619
G1 X50.356 Y47.402 E15.05177
G1 X50.481 Y47.329 E15.05899
G1 X51.289 Y46.904 E15.10454
G1 X52.29 Y46.514 E15.15814
G1 X53.173 Y46.283 E15.20367
G1 X53.312 Y46.253 E15.21077
G1 X54.2 Y46.128 E15.25551
G1 X54.345 Y46.121 E15.26275
G1 X55.282 Y46.094 E15.30952
G1 X56.205 Y46.175 E15.35574
G1 X56.337 Y46.189 E15.36236
G1 X57.231 Y46.373 E15.4079
G1 X57.352 Y46.407 E15.41417
G1 X58.223 Y46.69 E15.45986
G1 X59.21 Y47.143 E15.51404
G1 X59.976 Y47.606 E15.5587
G1 X60.11 Y47.696 E15.56675
G1 X60.814 Y48.241 E15.61117
G1 X60.907 Y48.329 E15.61756
G1 X61.58 Y48.984 E15.66441
G1 X62.181 Y49.718 E15.71174
G1 X62.247 Y49.805 E15.71719
G1 X62.747 Y50.584 E15.76337
G1 X62.8 Y50.683 E15.76897
G1 X63.219 Y51.542 E15.81665
G1 X63.527 Y52.405 E15.86237
G1 X63.566 Y52.52 E15.86842
G1 X63.784 Y53.458 E15.91647
G1 X63.794 Y53.515 E15.91936
G1 X63.902 Y54.467 E15.96716
G1 X63.903 Y55.53 E16.02019
G1 X63.795 Y56.471 E16.06744
G1 X63.781 Y56.554 E16.07164
G1 X63.563 Y57.491 E16.11964
G1 X63.522 Y57.613 E16.12606
G1 X63.222 Y58.452 E16.17051
G1 X62.794 Y59.325 E16.21902
G1 X62.741 Y59.427 E16.22476
G1 X62.249 Y60.189 E16.27001
G1 X62.177 Y60.288 E16.27611
G1 X61.575 Y61.024 E16.32355
G1 X60.825 Y61.751 E16.37566
G1 X60.115 Y62.299 E16.42041
G1 X59.979 Y62.393 E16.42866
G1 X59.206 Y62.859 E16.47369
G1 X59.085 Y62.917 E16.48038
G1 X58.227 Y63.309 E16.52744
G1 X57.353 Y63.592 E16.57328
G1 X57.224 Y63.631 E16.58
G1 X56.33 Y63.811 E16.6255
G1 X56.173 Y63.83 E16.63339
G1 X55.286 Y63.906 E16.6778
G1 X54.203 Y63.873 E16.73186
M104 S200
G0 F3600 X54.204 Y63.864
;MESH:NONMESH
G0 F600 X54.204 Y63.864 Z0.4
G0 F3600 X53.729 Y63.275
;TIME_ELAPSED:14.455576
;LAYER:1
M106 S255
;TYPE:WALL-INNER
;MESH:coneForServoHolder-v1.stl
G1 F2700 X54.481 Y63.347 E16.74442
G1 X54.931 Y63.368 E16.75191
G1 X55.686 Y63.343 E16.76448
G1 X56.132 Y63.284 E16.77196
G1 X56.872 Y63.162 E16.78443
G1 X57.587 Y62.95 E16.79683
G1 X58.016 Y62.812 E16.80433
G1 X58.707 Y62.506 E16.81689
G1 X59.103 Y62.293 E16.82437
G1 X59.749 Y61.9 E16.83695
G1 X60.68 Y61.159 E16.85673
G1 X61.206 Y60.617 E16.8693
G1 X61.504 Y60.277 E16.87681
G1 X61.954 Y59.67 E16.88938
G1 X62.186 Y59.286 E16.89684
G1 X62.552 Y58.633 E16.90929
G1 X62.833 Y57.941 E16.92171
G1 X62.992 Y57.52 E16.92919
G1 X63.183 Y56.788 E16.94177
G1 X63.264 Y56.346 E16.94925
G1 X63.36 Y55.596 E16.96182
G1 X63.36 Y54.403 E16.98166
