;FLAVOR:Marlin
;TIME:693
;Filament used: 0.383993m
;Layer height: 0.1
;MINX:43.057
;MINY:34.21
;MINZ:0.3
;MAXX:66.943
;MAXY:75.79
;MAXZ:3
;Generated with Cura_SteamEngine 4.12.1
M82 ;absolute extrusion mode
;Sliced at: Fri 31-12-2021 18:42:59
M104 S200 ;set temperatures
M140 S60
M109 S200 ;wait for temperatures
M190 S60
G21  ;metric values
G90  ;absolute positioning
M82  ;set extruder to absolute mode
M107  ;start with the fan off
G28 Z0  ;move Z to min endstops
G28 X0 Y0  ;move X/Y to min endstops
G29  ;Auto Level
G1 Z0.6 F120 ;move the Nozzle near the Bed
G92 E0
G1 Y0  ;zero the extruded length
G1 X10 E30 F500  ;printing a Line from right to left
G92 E0  ;zero the extruded length again
G1 Z2
G1 F120
M117 Printing...;Put printing message on LCD screen
M150 R255 U255 B255 P4 ;Change LED Color to white
G92 E0
G92 E0
G1 F6000 E-6.5
;LAYER_COUNT:28
;LAYER:0
M107
;MESH:macMiniPowerButtonServoAdapter_v2.stl
G0 F3600 X56.884 Y40.995 Z0.3
;TYPE:WALL-INNER
G1 F6000 E0
G1 F1800 X54.862 Y39.711 E0.1195
G1 X53.371 Y38.952 E0.20297
G1 X51.815 Y38.338 E0.28642
G1 X50.205 Y37.874 E0.37002
G1 X48.561 Y37.566 E0.45346
G1 X46.894 Y37.415 E0.53697
G1 X45.219 Y37.423 E0.62054
G1 X44.243 Y37.522 E0.66948
G1 X44.243 Y34.705 E0.81002
G1 X45.519 Y34.61 E0.87386
G1 X47.335 Y34.636 E0.96447
G1 X49.145 Y34.823 E1.05525
G1 X50.927 Y35.169 E1.14581
G1 X52.663 Y35.67 E1.23596
G1 X54.351 Y36.324 E1.32627
G1 X55.98 Y37.13 E1.41695
G1 X57.538 Y38.079 E1.50796
G1 X58.988 Y39.153 E1.59798
G1 X60.347 Y40.359 E1.68863
G1 X61.589 Y41.676 E1.77895
G1 X62.719 Y43.11 E1.87003
G1 X63.702 Y44.617 E1.9598
G1 X64.563 Y46.234 E2.05119
G1 X65.264 Y47.891 E2.14095
G1 X65.82 Y49.618 E2.23147
G1 X66.221 Y51.394 E2.3223
G1 X66.46 Y53.169 E2.41166
G1 X66.542 Y55 E2.5031
G1 X66.46 Y56.826 E2.59429
G1 X66.221 Y58.606 E2.68389
G1 X65.821 Y60.377 E2.77447
G1 X65.264 Y62.109 E2.86524
G1 X64.563 Y63.766 E2.955
G1 X63.702 Y65.383 E3.0464
G1 X62.719 Y66.89 E3.13616
G1 X61.589 Y68.324 E3.22725
G1 X60.347 Y69.641 E3.31756
G1 X58.988 Y70.847 E3.40821
G1 X57.538 Y71.921 E3.49824
G1 X55.98 Y72.87 E3.58925
G1 X54.351 Y73.676 E3.67992
G1 X52.663 Y74.33 E3.77024
G1 X50.927 Y74.831 E3.86038
G1 X49.145 Y75.177 E3.95095
G1 X47.335 Y75.364 E4.04173
G1 X45.519 Y75.39 E4.13234
G1 X44.243 Y75.295 E4.19618
G1 X44.243 Y56.603 E5.12872
G1 X44.5 Y56.83 E5.14583
G1 X45.025 Y57.115 E5.17563
G1 X45.596 Y57.287 E5.20538
G1 X46.261 Y57.326 E5.23862
G1 X46.937 Y57.202 E5.27291
G1 X47.564 Y56.92 E5.30721
G1 X48.043 Y56.545 E5.33756
G1 X48.043 Y56.955 E5.34655
G1 X48.043 Y72.547 E6.12444
G1 X50.484 Y72.057 E6.24865
G1 X52.194 Y71.528 E6.33795
G1 X53.84 Y70.829 E6.42717
G1 X55.406 Y69.966 E6.51637
G1 X56.876 Y68.949 E6.60555
G1 X58.237 Y67.787 E6.69483
G1 X59.472 Y66.495 E6.784
G1 X60.569 Y65.082 E6.87325
G1 X61.519 Y63.567 E6.96246
G1 X62.309 Y61.961 E7.05176
G1 X62.931 Y60.285 E7.14095
G1 X63.381 Y58.554 E7.23018
G1 X63.652 Y56.786 E7.31941
G1 X63.743 Y55.001 E7.40858
G1 X63.665 Y53.338 E7.49164
G1 X63.43 Y51.69 E7.57469
G1 X63.039 Y50.073 E7.65769
G1 X62.499 Y48.499 E7.74071
G1 X61.811 Y46.984 E7.82372
G1 X60.985 Y45.539 E7.90676
G1 X59.63 Y43.622 E8.02388
G1 X48.918 Y54.335 E8.7797
G1 X48.895 Y53.964 E8.79825
G1 X48.692 Y53.306 E8.8326
G1 X48.335 Y52.718 E8.86692
G1 X47.846 Y52.228 E8.90146
G1 X47.206 Y51.855 E8.93842
G1 X46.49 Y51.666 E8.97536
G1 X46.212 Y51.666 E8.98923
G1 X56.884 Y40.995 E9.74216
G0 F3600 X56.248 Y41.065
;TYPE:WALL-OUTER
G1 F1800 X54.664 Y40.059 E9.83578
G1 X53.206 Y39.317 E9.9174
G1 X51.686 Y38.717 E9.99892
G1 X50.113 Y38.264 E10.08059
G1 X48.506 Y37.963 E10.16216
G1 X46.877 Y37.815 E10.24376
G1 X45.24 Y37.823 E10.32544
G1 X43.843 Y37.964 E10.39549
G1 X43.843 Y34.334 E10.57659
G1 X45.506 Y34.21 E10.65979
G1 X47.359 Y34.236 E10.75224
G1 X49.206 Y34.427 E10.84488
G1 X51.015 Y34.778 E10.93681
G1 X52.796 Y35.292 E11.02929
G1 X54.513 Y35.958 E11.12117
G1 X56.173 Y36.779 E11.21357
G1 X57.755 Y37.743 E11.30599
G1 X59.239 Y38.842 E11.39812
G1 X60.627 Y40.073 E11.49068
G1 X61.895 Y41.418 E11.5829
G1 X63.045 Y42.877 E11.67558
G1 X64.045 Y44.41 E11.7669
G1 X64.923 Y46.059 E11.8601
G1 X65.642 Y47.758 E11.95214
G1 X66.205 Y49.506 E12.04376
G1 X66.614 Y51.32 E12.13654
G1 X66.86 Y53.143 E12.22831
G1 X66.943 Y55 E12.32105
G1 X66.86 Y56.852 E12.41354
G1 X66.614 Y58.68 E12.50556
G1 X66.206 Y60.489 E12.59808
G1 X65.642 Y62.242 E12.68995
G1 X64.923 Y63.941 E12.78199
G1 X64.045 Y65.59 E12.8752
G1 X63.045 Y67.123 E12.96651
G1 X61.895 Y68.582 E13.05919
G1 X60.627 Y69.927 E13.15141
G1 X59.239 Y71.158 E13.24397
G1 X57.755 Y72.257 E13.3361
G1 X56.173 Y73.221 E13.42853
G1 X54.513 Y74.042 E13.52092
G1 X52.796 Y74.708 E13.6128
G1 X51.015 Y75.222 E13.70528
G1 X49.206 Y75.573 E13.79721
G1 X47.359 Y75.764 E13.88985
G1 X45.506 Y75.79 E13.98231
G1 X43.843 Y75.666 E14.06551
G1 X43.843 Y56.518 E15.0208
G1 X43.519 Y56.12 E15.04641
G1 X43.217 Y55.501 E15.08077
G1 X43.06 Y54.831 E15.1151
G1 X43.057 Y54.146 E15.14928
G1 X43.208 Y53.475 E15.18359
G1 X43.503 Y52.859 E15.21767
G1 X43.932 Y52.322 E15.25196
G1 X44.483 Y51.885 E15.28704
G1 X45.118 Y51.587 E15.32204
G1 X45.888 Y51.424 E15.3613
G1 X56.248 Y41.065 E16.09222
G0 F3600 X56.08 Y40.958
G0 X56.241 Y40.706
G0 X59.367 Y44.029
G0 X59.577 Y44.24
G1 F1800 X49.175 Y54.643 E16.82617
G1 X49.11 Y55.2 E16.85415
G1 X48.872 Y55.858 E16.88906
G1 X48.443 Y56.518 E16.92833
G1 X48.443 Y72.059 E17.70368
G1 X50.385 Y71.669 E17.8025
G1 X52.056 Y71.152 E17.88976
G1 X53.665 Y70.469 E17.97697
G1 X55.195 Y69.625 E18.06415
G1 X56.632 Y68.632 E18.15129
G1 X57.962 Y67.496 E18.23855
G1 X59.169 Y66.233 E18.32571
G1 X60.241 Y64.853 E18.41289
G1 X61.169 Y63.372 E18.50009
G1 X61.941 Y61.803 E18.58733
G1 X62.549 Y60.165 E18.67449
G1 X62.989 Y58.473 E18.76172
G1 X63.254 Y56.745 E18.84893
G1 X63.343 Y55 E18.93611
G1 X63.266 Y53.376 E19.01722
G1 X63.037 Y51.765 E19.0984
G1 X62.655 Y50.185 E19.1795
G1 X62.127 Y48.647 E19.26062
G1 X61.455 Y47.166 E19.34176
G1 X60.647 Y45.754 E19.42293
G1 X59.577 Y44.24 E19.51542
G0 F3600 X59.436 Y44.381
G0 X59.226 Y44.17
G0 X48.762 Y54.724
G0 X48.02 Y56.341
G0 X46.886 Y57.048
G0 X45.58 Y57.176
G0 X45.666 Y56.89
G1 F1800 X46.236 Y56.924 E19.54391
G1 X46.817 Y56.817 E19.57338
G1 X47.356 Y56.575 E19.60286
G1 X47.822 Y56.21 E19.63239
G1 X48.185 Y55.745 E19.66182
G1 X48.428 Y55.207 E19.69127
G1 X48.535 Y54.625 E19.72079
G1 X48.499 Y54.036 E19.75023
G1 X48.324 Y53.471 E19.77974
G1 X48.018 Y52.966 E19.8092
G1 X47.6 Y52.547 E19.83873
G1 X47.052 Y52.228 E19.87036
G1 X46.438 Y52.066 E19.90205
G1 X45.848 Y52.066 E19.93148
G1 X45.274 Y52.208 E19.96098
G1 X44.751 Y52.482 E19.99044
G1 X44.308 Y52.874 E20.01995
G1 X43.973 Y53.36 E20.0494
G1 X43.762 Y53.914 E20.07897
G1 X43.692 Y54.5 E20.10842
G1 X43.762 Y55.086 E20.13786
G1 X43.973 Y55.64 E20.16744
G1 X44.308 Y56.126 E20.19689
G1 X44.731 Y56.5 E20.22506
G1 X45.18 Y56.744 E20.25055
G1 X45.666 Y56.89 E20.27587
G0 F3600 X45.865 Y56.901
G0 X45.528 Y57.673
;TYPE:SKIN
G1 F1800 X46.285 Y57.718 E20.3137
G1 X47.054 Y57.577 E20.35271
G1 X47.653 Y57.307 E20.38549
G1 X47.653 Y73.023 E21.16956
G1 X50.58 Y72.435 E21.31851
G1 X52.328 Y71.895 E21.40978
G1 X54.011 Y71.18 E21.50101
G1 X55.611 Y70.298 E21.59216
G1 X57.114 Y69.259 E21.68332
G1 X58.506 Y68.071 E21.77462
G1 X59.768 Y66.75 E21.86576
G1 X60.889 Y65.306 E21.95696
G1 X61.86 Y63.758 E22.04813
G1 X62.668 Y62.115 E22.13948
G1 X63.303 Y60.402 E22.23062
G1 X63.763 Y58.632 E22.32186
G1 X64.04 Y56.825 E22.41306
G1 X64.133 Y55.001 E22.50418
G1 X64.053 Y53.301 E22.58909
G1 X63.814 Y51.616 E22.674
G1 X63.414 Y49.964 E22.7588
G1 X62.862 Y48.355 E22.84366
G1 X62.158 Y46.806 E22.92855
G1 X61.314 Y45.329 E23.01342
G1 X59.681 Y43.019 E23.15455
G1 X49.17 Y53.533 E23.89627
G1 X49.051 Y53.145 E23.91652
G1 X48.645 Y52.476 E23.95556
G1 X48.086 Y51.916 E23.99503
G1 X47.356 Y51.492 E24.03715
G1 X47.024 Y51.404 E24.05429
G1 X57.504 Y40.927 E24.7936
G1 X55.055 Y39.372 E24.93833
G1 X53.531 Y38.596 E25.02365
G1 X51.941 Y37.968 E25.10894
G1 X50.295 Y37.494 E25.1944
G1 X48.614 Y37.18 E25.27971
G1 X46.911 Y37.025 E25.36503
G1 X45.198 Y37.033 E25.45049
G1 X44.633 Y37.091 E25.47883
G1 X44.633 Y35.066 E25.57986
G1 X45.52 Y35 E25.62423
G1 X47.31 Y35.026 E25.71354
G1 X49.089 Y35.21 E25.80277
G1 X50.833 Y35.548 E25.8914
G1 X52.547 Y36.042 E25.98039
G1 X54.193 Y36.68 E26.06846
G1 X55.787 Y37.469 E26.1572
G1 X57.317 Y38.401 E26.24658
G1 X58.742 Y39.457 E26.33506
G1 X60.079 Y40.643 E26.42423
G1 X61.289 Y41.926 E26.51221
G1 X62.401 Y43.337 E26.60184
G1 X63.363 Y44.814 E26.68978
G1 X64.215 Y46.411 E26.78009
G1 X64.899 Y48.03 E26.86777
G1 X65.444 Y49.72 E26.95636
G1 X65.837 Y51.464 E27.04555
G1 X66.07 Y53.187 E27.13229
G1 X66.152 Y55 E27.22284
G1 X66.07 Y56.801 E27.31278
G1 X65.837 Y58.536 E27.40012
G1 X65.446 Y60.27 E27.4888
G1 X64.899 Y61.97 E27.5779
G1 X64.215 Y63.589 E27.66558
G1 X63.363 Y65.186 E27.75589
G1 X62.401 Y66.663 E27.84383
G1 X61.291 Y68.072 E27.93331
G1 X60.079 Y69.357 E28.02144
G1 X58.742 Y70.543 E28.1106
G1 X57.317 Y71.599 E28.19909
G1 X55.787 Y72.531 E28.28847
G1 X54.193 Y73.32 E28.3772
G1 X52.547 Y73.958 E28.46528
G1 X50.833 Y74.452 E28.55427
G1 X49.089 Y74.79 E28.6429
G1 X47.31 Y74.974 E28.73212
G1 X45.52 Y75 E28.82144
G1 X44.633 Y74.934 E28.86581
G1 X44.633 Y57.346 E29.74328
G1 X44.875 Y57.477 E29.75701
G1 X45.528 Y57.673 E29.79102
G0 F3600 X44.812 Y74.228
G1 F1800 X45.394 Y74.809 E29.83205
G0 F3600 X45.962 Y74.812
G1 F1800 X44.812 Y73.662 E29.91319
G0 F3600 X44.812 Y73.097
G1 F1800 X46.52 Y74.804 E30.03366
G0 F3600 X47.077 Y74.796
G1 F1800 X44.812 Y72.531 E30.19347
G0 F3600 X44.812 Y71.965
G1 F1800 X47.608 Y74.76 E30.39071
G0 F3600 X48.12 Y74.707
G1 F1800 X44.812 Y71.4 E30.62407
G0 F3600 X44.812 Y70.834
G1 F1800 X48.633 Y74.654 E30.89363
G0 F3600 X49.14 Y74.596
G1 F1800 X47.733 Y73.189 E30.9929
G0 F3600 X47.473 Y72.928
G1 F1800 X44.812 Y70.268 E31.18061
G0 F3600 X44.812 Y69.703
G1 F1800 X47.473 Y72.363 E31.36833
G0 F3600 X47.473 Y71.797
G1 F1800 X44.812 Y69.137 E31.55604
G0 F3600 X44.812 Y68.571
G1 F1800 X47.473 Y71.231 E31.74375
G0 F3600 X47.473 Y70.666
G1 F1800 X44.812 Y68.005 E31.9315
G0 F3600 X44.812 Y67.44
G1 F1800 X47.473 Y70.1 E32.11921
G0 F3600 X47.473 Y69.534
G1 F1800 X44.812 Y66.874 E32.30692
G0 F3600 X44.812 Y66.308
G1 F1800 X47.473 Y68.969 E32.49467
G0 F3600 X47.473 Y68.403
G1 F1800 X44.812 Y65.743 E32.68238
G0 F3600 X44.812 Y65.177
G1 F1800 X47.473 Y67.837 E32.8701
G0 F3600 X47.473 Y67.272
G1 F1800 X44.812 Y64.611 E33.05785
G0 F3600 X44.812 Y64.046
G1 F1800 X47.473 Y66.706 E33.24556
G0 F3600 X47.473 Y66.14
G1 F1800 X44.812 Y63.48 E33.43327
G0 F3600 X44.812 Y62.914
G1 F1800 X47.473 Y65.574 E33.62098
G0 F3600 X47.473 Y65.009
G1 F1800 X44.812 Y62.349 E33.8087
G0 F3600 X44.812 Y61.783
G1 F1800 X47.473 Y64.443 E33.99641
G0 F3600 X47.473 Y63.877
G1 F1800 X44.812 Y61.217 E34.18412
G0 F3600 X44.812 Y60.652
G1 F1800 X47.473 Y63.312 E34.37183
G0 F3600 X47.473 Y62.746
G1 F1800 X44.812 Y60.086 E34.55955
G0 F3600 X44.812 Y59.52
G1 F1800 X47.473 Y62.18 E34.74726
G0 F3600 X47.473 Y61.615
G1 F1800 X44.812 Y58.955 E34.93497
G0 F3600 X44.812 Y58.389
G1 F1800 X47.473 Y61.049 E35.12268
G0 F3600 X47.473 Y60.483
G1 F1800 X44.812 Y57.823 E35.3104
G0 F3600 X45.367 Y57.812
G1 F1800 X47.473 Y59.918 E35.45899
G0 F3600 X47.473 Y59.352
G1 F1800 X46.001 Y57.88 E35.56284
G0 F3600 X46.539 Y57.853
G1 F1800 X47.473 Y58.786 E35.62871
G0 F3600 X47.473 Y58.221
G1 F1800 X47.017 Y57.765 E35.66088
G0 F3600 X48.02 Y56.341
G0 X49.527 Y52.921
G1 F1800 X47.644 Y51.038 E35.79374
G0 F3600 X47.926 Y50.755
G1 F1800 X49.81 Y52.639 E35.92666
G0 F3600 X50.093 Y52.356
G1 F1800 X48.209 Y50.472 E36.05959
G0 F3600 X48.492 Y50.189
G1 F1800 X50.376 Y52.073 E36.19252
G0 F3600 X50.659 Y51.79
G1 F1800 X48.775 Y49.906 E36.32544
G0 F3600 X49.058 Y49.624
G1 F1800 X50.942 Y51.507 E36.45833
G0 F3600 X51.224 Y51.224
G1 F1800 X49.341 Y49.341 E36.59119
G0 F3600 X49.624 Y49.058
G1 F1800 X51.507 Y50.942 E36.72408
G0 F3600 X51.79 Y50.659
G1 F1800 X49.906 Y48.775 E36.85701
G0 F3600 X50.189 Y48.492
G1 F1800 X52.072 Y50.375 E36.98986
G0 F3600 X52.355 Y50.092
G1 F1800 X50.472 Y48.209 E37.12272
G0 F3600 X50.755 Y47.926
G1 F1800 X52.638 Y49.81 E37.25561
G0 F3600 X52.921 Y49.527
G1 F1800 X51.038 Y47.644 E37.38847
G0 F3600 X51.321 Y47.362
G1 F1800 X53.204 Y49.244 E37.52129
G0 F3600 X53.486 Y48.961
G1 F1800 X51.604 Y47.079 E37.65407
G0 F3600 X51.887 Y46.796
G1 F1800 X53.769 Y48.678 E37.78686
G0 F3600 X54.052 Y48.395
G1 F1800 X52.17 Y46.513 E37.91964
G0 F3600 X52.453 Y46.23
G1 F1800 X54.335 Y48.112 E38.05243
G0 F3600 X54.617 Y47.829
G1 F1800 X52.736 Y45.947 E38.18518
G0 F3600 X53.018 Y45.664
G1 F1800 X54.9 Y47.546 E38.31796
G0 F3600 X55.183 Y47.263
G1 F1800 X53.301 Y45.382 E38.45071
G0 F3600 X53.584 Y45.099
G1 F1800 X55.466 Y46.98 E38.58346
G0 F3600 X55.749 Y46.698
G1 F1800 X53.867 Y44.816 E38.71625
G0 F3600 X54.15 Y44.533
G1 F1800 X56.031 Y46.415 E38.849
G0 F3600 X56.314 Y46.132
G1 F1800 X54.433 Y44.251 E38.98171
G0 F3600 X54.716 Y43.968
G1 F1800 X56.597 Y45.849 E39.11443
G0 F3600 X56.88 Y45.566
G1 F1800 X54.999 Y43.685 E39.24714
G0 F3600 X55.282 Y43.402
G1 F1800 X57.162 Y45.283 E39.37982
G0 F3600 X57.445 Y45
G1 F1800 X55.565 Y43.12 E39.51247
G0 F3600 X55.848 Y42.837
G1 F1800 X57.728 Y44.717 E39.64511
G0 F3600 X58.011 Y44.434
G1 F1800 X56.13 Y42.554 E39.77779
G0 F3600 X56.413 Y42.271
G1 F1800 X58.293 Y44.151 E39.91043
G0 F3600 X58.576 Y43.868
G1 F1800 X56.696 Y41.988 E40.04308
G0 F3600 X56.979 Y41.705
G1 F1800 X58.859 Y43.586 E40.17576
G0 F3600 X59.142 Y43.303
G1 F1800 X57.262 Y41.423 E40.3084
G0 F3600 X57.545 Y41.14
G1 F1800 X59.425 Y43.02 E40.44104
G1 X59.495 Y43.09
G0 F3600 X61.05 Y44.646
G1 F1800 X64.841 Y48.436 E40.70849
G1 X64.911 Y48.506
G0 F3600 X65.11 Y49.271
G1 F1800 X61.99 Y46.151 E40.92862
G1 X61.92 Y46.081
G0 F3600 X62.584 Y47.311
G1 F1800 X65.335 Y50.062 E41.12272
G0 F3600 X65.5 Y50.792
G1 F1800 X63.046 Y48.338 E41.29586
G1 X62.976 Y48.268
G0 F3600 X63.34 Y49.198
G1 F1800 X65.662 Y51.52 E41.45969
G0 F3600 X65.751 Y52.175
G1 F1800 X63.616 Y50.039 E41.61036
G0 F3600 X63.797 Y50.786
G1 F1800 X65.84 Y52.829 E41.7545
G0 F3600 X65.901 Y53.456
G1 F1800 X63.978 Y51.533 E41.89018
G0 F3600 X64.077 Y52.197
G1 F1800 X65.928 Y54.049 E42.02082
G0 F3600 X65.955 Y54.641
G1 F1800 X64.17 Y52.856 E42.14676
G0 F3600 X64.241 Y53.493
G1 F1800 X65.962 Y55.214 E42.26818
G0 F3600 X65.937 Y55.755
G1 F1800 X64.268 Y54.086 E42.38594
G0 F3600 X64.297 Y54.68
G1 F1800 X65.912 Y56.296 E42.49992
G0 F3600 X65.883 Y56.833
G1 F1800 X64.3 Y55.249 E42.61165
G0 F3600 X64.272 Y55.787
G1 F1800 X65.817 Y57.332 E42.72065
G0 F3600 X65.75 Y57.83
G1 F1800 X64.244 Y56.325 E42.82688
G0 F3600 X64.215 Y56.861
G1 F1800 X65.683 Y58.329 E42.93045
G0 F3600 X65.592 Y58.804
G1 F1800 X64.14 Y57.352 E43.0329
G0 F3600 X64.064 Y57.842
G1 F1800 X65.487 Y59.265 E43.1333
G0 F3600 X65.383 Y59.726
G1 F1800 X63.989 Y58.332 E43.23165
G0 F3600 X63.901 Y58.81
G1 F1800 X65.279 Y60.188 E43.32888
G0 F3600 X65.144 Y60.618
G1 F1800 X63.784 Y59.259 E43.4248
G0 F3600 X63.667 Y59.708
G1 F1800 X65.007 Y61.047 E43.51931
G0 F3600 X64.869 Y61.475
G1 F1800 X63.551 Y60.157 E43.6123
G0 F3600 X63.421 Y60.593
G1 F1800 X64.732 Y61.903 E43.70476
G0 F3600 X64.563 Y62.301
G1 F1800 X63.269 Y61.006 E43.7961
G0 F3600 X63.116 Y61.419
G1 F1800 X64.396 Y62.699 E43.88641
G0 F3600 X64.227 Y63.096
G1 F1800 X62.962 Y61.831 E43.97566
G0 F3600 X62.805 Y62.239
G1 F1800 X64.059 Y63.493 E44.06414
G0 F3600 X63.864 Y63.864
G1 F1800 X62.619 Y62.619 E44.15198
G0 F3600 X62.432 Y62.998
G1 F1800 X63.667 Y64.233 E44.23911
G0 F3600 X63.471 Y64.602
G1 F1800 X62.246 Y63.377 E44.32554
G0 F3600 X62.059 Y63.756
G1 F1800 X63.274 Y64.971 E44.41127
G0 F3600 X63.059 Y65.322
G1 F1800 X61.849 Y64.111 E44.49668
G0 F3600 X61.631 Y64.459
G1 F1800 X62.836 Y65.664 E44.58169
G0 F3600 X62.612 Y66.007
G1 F1800 X61.412 Y64.807 E44.66636
G0 F3600 X61.195 Y65.154
G1 F1800 X62.39 Y66.349 E44.75067
G0 F3600 X62.156 Y66.682
G1 F1800 X60.968 Y65.494 E44.83449
G0 F3600 X60.722 Y65.813
G1 F1800 X61.907 Y66.998 E44.9181
G0 F3600 X61.657 Y67.314
G1 F1800 X60.475 Y66.132 E45.0015
G0 F3600 X60.227 Y66.45
G1 F1800 X61.408 Y67.631 E45.08483
G0 F3600 X61.159 Y67.947
